www/assets/icons/rotate_90_degrees_cw.svg

<svg width="24" height="24" viewBox="0 0 24 24" xmlns="http://www.w3.org/2000/svg" fill='currentColor'><path d="M4.14 19.869C7.17 22.899 11.81 23.309 15.29 21.119L13.83 19.659C11.17 21.089 7.79 20.689 5.55 18.449C2.82 15.719 2.82 11.279 5.55 8.54902C6.92 7.18902 8.71 6.52902 10.5 6.52902V9.49902L14.5 5.49902L10.5 1.49902V4.50902C8.2 4.50902 5.89 5.37902 4.14 7.13902C0.62 10.649 0.62 16.349 4.14 19.869ZM10.5 13.499L16.5 19.499L22.5 13.499L16.5 7.49902L10.5 13.499Z"/></svg>

<svg xmlns="http://www.w3.org/2000/svg" width="24" height="24" viewBox="0 0 24 24" fill='currentColor'><path d="M4.14 19.869c3.03 3.03 7.67 3.44 11.15 1.25l-1.46-1.46c-2.66 1.43-6.04 1.03-8.28-1.21a7.007 7.007 0 0 1 0-9.9c1.37-1.36 3.16-2.02 4.95-2.02v2.97l4-4-4-4v3.01c-2.3 0-4.61.87-6.36 2.63-3.52 3.51-3.52 9.21 0 12.73m6.36-6.37 6 6 6-6-6-6z"/></svg>
